Adwaita++-Dark/actions/22/tools-media-optical-copy.svg

<svg height="22" viewBox="0 0 22 22" width="22" xmlns="http://www.w3.org/2000/svg">
  <path d="m8.7148438 1.2890625c-1.6102001 0-3.0782563.6509656-4.1601563 1.6972656a6.5 6.5 0 0 1 2.4453125-.4824219 6.5 6.5 0 0 1 6.5 6.5 6.5 6.5 0 0 1 -.482422 2.4433598c1.046-1.082 1.697266-2.5481035 1.697266-4.1582035 0-3.2934-2.7068-6-6.0000002-6zm-1.7148438 1.7109375c-3.2934 0-6 2.7066-6 6s2.7066 6 6 6 6-2.7066 6-6-2.7066-6-6-6zm0 4.2851562c.9417 0 1.7148438.7731338 1.7148438 1.7148438 0 .94169-.7731338 1.714844-1.7148438 1.714844-.9417 0-1.7148437-.773144-1.7148438-1.714844 0-.9417.7731338-1.7148438 1.7148438-1.7148438z" fill="#e6ddff" transform="translate(3 3)"/>
</svg>

<svg xmlns="http://www.w3.org/2000/svg" width="22" height="22" viewBox="0 0 22 22">
 <defs>
  <style id="current-color-scheme" type="text/css">
   .ColorScheme-Text { color:#E6DDFF; } .ColorScheme-Highlight { color:#4285f4; }
  </style>
 </defs>
 <path style="fill:currentColor" class="ColorScheme-Text" d="M 8.7148438 1.2890625 C 7.1046437 1.2890625 5.6365875 1.9400281 4.5546875 2.9863281 A 6.5 6.5 0 0 1 7 2.5039062 A 6.5 6.5 0 0 1 13.5 9.0039062 A 6.5 6.5 0 0 1 13.017578 11.447266 C 14.063578 10.365266 14.714844 8.8991625 14.714844 7.2890625 C 14.714844 3.9956625 12.008044 1.2890625 8.7148438 1.2890625 z M 7 3 C 3.7066 3 1 5.7066 1 9 C 1 12.2934 3.7066 15 7 15 C 10.2934 15 13 12.2934 13 9 C 13 5.7066 10.2934 3 7 3 z M 7 7.2851562 C 7.9417 7.2851562 8.7148438 8.05829 8.7148438 9 C 8.7148438 9.94169 7.94171 10.714844 7 10.714844 C 6.0583 10.714844 5.2851563 9.9417 5.2851562 9 C 5.2851562 8.0583 6.05829 7.2851562 7 7.2851562 z" transform="translate(3 3)"/>
</svg>
